X:1
T: Lady Douglas of Bothwell
C:Donald Dow
R:Jig
Q:180
K:Em
M:6/8
L:1/16
|:e2|B4E2 G4E2|B2G2E2 E4d2|B4E2 G4B2|A2F2D2 D4d2|
B4E2 G4B2|A2B2G2 F4D2|E2F2E2 G4A2|B2G2E2 E4:|
B2|e2f2g2 f4e2|^d2e2f2 B4=d2|A2F2A2 B2d2B2|A2F2D2 D4B2|
e2f2g2 f4e2|^d2e2f2 B4=d2|B2d2B2 A2F2A2|B2G2E2 E4B2|
e2f2g2 f2g2e2|^d2e2f2 B4=d2|A2F2A2 B2d2B2|A2F2D2 D4B2|
G2F2G2 E2G2B2|e2^d2e2 B2g2e2|d2^c2B2 A2F2A2|B2G2E2 E4||
